packages/dnb-ui-lib/assets/icons/fullscreen.svg

<svg width="16" height="16" viewBox="0 0 16 16" fill="none" xmlns="http://www.w3.org/2000/svg">
<g clip-path="url(#clip0)">
<path fill-rule="evenodd" clip-rule="evenodd" d="M6.61366 10.447C6.90656 10.1541 6.90656 9.67919 6.61366 9.3863C6.32077 9.0934 5.8459 9.0934 5.553 9.3863L1.5 13.4393V11.9166C1.5 11.5024 1.16421 11.1666 0.75 11.1666C0.335786 11.1666 0 11.5024 0 11.9166V15.25C0 15.3517 0.0202392 15.4486 0.0569091 15.537C0.093239 15.6249 0.146963 15.7072 0.218082 15.7787C0.21861 15.7792 0.21914 15.7798 0.21967 15.7803C0.2202 15.7808 0.220731 15.7813 0.221263 15.7819C0.2928 15.853 0.375106 15.9067 0.462912 15.9431C0.551342 15.9797 0.648308 16 0.75 16H4.08333C4.49755 16 4.83333 15.6642 4.83333 15.25C4.83333 14.8357 4.49755 14.5 4.08333 14.5H2.56066L6.61366 10.447Z" fill="black"/>
<path fill-rule="evenodd" clip-rule="evenodd" d="M15.9432 0.462912C15.9068 0.375106 15.8531 0.2928 15.782 0.221263C15.7815 0.220731 15.7809 0.2202 15.7804 0.21967C15.7799 0.21914 15.7794 0.21861 15.7788 0.218082C15.6432 0.0832921 15.4564 0 15.2501 0H11.9167C11.5025 0 11.1667 0.335786 11.1667 0.75C11.1667 1.16421 11.5025 1.5 11.9167 1.5H13.4394L9.38642 5.553C9.09352 5.8459 9.09352 6.32077 9.38642 6.61366C9.67931 6.90656 10.1542 6.90656 10.4471 6.61366L14.5001 2.56066V4.08333C14.5001 4.49755 14.8359 4.83333 15.2501 4.83333C15.6643 4.83333 16.0001 4.49755 16.0001 4.08333V0.75C16.0001 0.648308 15.9798 0.551342 15.9432 0.462912Z" fill="black"/>
<path fill-rule="evenodd" clip-rule="evenodd" d="M0.0569091 0.462912C0.0202391 0.551342 0 0.648308 0 0.75V4.08333C0 4.49755 0.335786 4.83333 0.75 4.83333C1.16421 4.83333 1.5 4.49755 1.5 4.08333V2.56066L5.553 6.61366C5.8459 6.90656 6.32077 6.90656 6.61366 6.61366C6.90656 6.32077 6.90656 5.8459 6.61366 5.553L2.56066 1.5H4.08333C4.49755 1.5 4.83333 1.16421 4.83333 0.75C4.83333 0.335786 4.49755 0 4.08333 0H0.75C0.543702 0 0.356858 0.0832921 0.221263 0.218082C0.220731 0.21861 0.2202 0.21914 0.21967 0.21967C0.21914 0.2202 0.21861 0.220731 0.218082 0.221263C0.146963 0.2928 0.093239 0.375106 0.0569091 0.462912Z" fill="black"/>
<path fill-rule="evenodd" clip-rule="evenodd" d="M10.4471 9.3863C10.1542 9.0934 9.67931 9.0934 9.38642 9.3863C9.09352 9.67919 9.09352 10.1541 9.38642 10.447L13.4394 14.5H11.9167C11.5025 14.5 11.1667 14.8357 11.1667 15.25C11.1667 15.6642 11.5025 16 11.9167 16H15.2501C15.3518 16 15.4487 15.9797 15.5372 15.9431C15.6236 15.9073 15.7047 15.8547 15.7755 15.7852C15.7788 15.7819 15.7821 15.7787 15.7853 15.7754C15.9181 15.6401 16.0001 15.4546 16.0001 15.25V11.9166C16.0001 11.5024 15.6643 11.1666 15.2501 11.1666C14.8359 11.1666 14.5001 11.5024 14.5001 11.9166V13.4393L10.4471 9.3863Z" fill="black"/>
</g>
<defs>
<clipPath id="clip0">
<path d="M0 0H16V16H0V0Z" fill="white"/>
</clipPath>
</defs>
</svg>

<svg width="16" height="16" viewBox="0 0 16 16" fill="none" xmlns="http://www.w3.org/2000/svg"><g clip-path="url(#clip0)" fill-rule="evenodd" clip-rule="evenodd" fill="#000"><path d="M6.614 10.447a.75.75 0 00-1.061-1.06L1.5 13.438v-1.522a.75.75 0 00-1.5 0v3.333a.747.747 0 00.218.529l.002.001.001.002A.75.75 0 00.75 16h3.333a.75.75 0 000-1.5H2.561l4.053-4.053zM15.943.463a.75.75 0 00-.161-.242L15.78.22 15.78.218A.748.748 0 0015.25 0h-3.333a.75.75 0 000 1.5h1.522L9.386 5.553a.75.75 0 101.061 1.06L14.5 2.562v1.522a.75.75 0 001.5 0V.75a.75.75 0 00-.057-.287zM.057.463A.748.748 0 000 .75v3.333a.75.75 0 101.5 0V2.561l4.053 4.053a.75.75 0 101.06-1.061L2.562 1.5h1.522a.75.75 0 100-1.5H.75a.748.748 0 00-.693.463zM10.447 9.386a.75.75 0 10-1.06 1.061l4.052 4.053h-1.522a.75.75 0 100 1.5h3.333a.75.75 0 00.525-.215l.01-.01A.748.748 0 0016 15.25v-3.333a.75.75 0 00-1.5 0v1.522l-4.053-4.053z"/></g><defs/></svg>
